X: 1
T: Edelweiss
C: tune: Richard Rodgers
C: words: Oscar hammerstein II
M: 3/4
L: 1/4
K: D
|: "D"F2A  | "A7"e3  | "D"d2A | "G"G3 \
||1"D"F2F  | "Bm"FGA | "Em"B3  | "A7"A3 \
:|2"D"F2A  | "A7"ABc |
|  "D"d3   | "find"d3 \
|] "A7"A>AA |  "A"cBA | "D"F2A | d3 \
|  "G"B2d  | "E7"e2d |  "A"c3  | "A7 d.C."A3 |]
